!!!OTL: ES ZOG EIN KNAB INS NIEDERLAND
!!!ARE: Europa, Mitteleuropa, Deutschland, Herzogtum Berg
!!!SCT: Z0100
!!!YEM: Copyright 1995, estate of Helmut Schaffrath.
**kern
*ICvox
*Ivox
*M3/4
*k[b-e-]
*g:
{8d
8d
8fn
=1
4.g
8a
8b-
8b-
=2
4a
8g}
{8a
8b-
8cc
=3
4.dd
8dd
8cc
8b-
=4
4a
8r}
{8g
8g
8g
=5
4.dd
8dd
8cc
8b-
=6
4.a}
{8dd
8cc
8b-
=7
4.dd
8cc
8b-
8a
=8
4g
8r}
==
!!!AGN: Sagen - Lied, Romanze, Tod
!!!ONB: ESAC (Essen Associative Code) Database: ZUCCAL
!!!AMT: simple triple
!!!AIN: vox
!!!EED: Helmut Schaffrath
!!!EEV: 1.0
*-
